X:1
T: The Broken Sixpence
C:
R:Reel
Q: 232
K:G
M:4/4
L:1/8
|:g2dc Bc dB|A2ag fd ef|g2dc Bc dB|cA dc BGG2|
g2dc Bc dB|ce ag fd ef|gb fa eg dB|ce Ad BGG2:|
|:Bc dB cd ec|Bd gg baa2|ba gf gd BG|ce dc BGG2|
Bd ^cd =ce ^de|Bd ^cd cAA2|bg af gd eB|ce dc BGG2:|
